Collapse/img/advantages/advantages_updates.svg

<svg width="110" height="110" viewBox="0 0 110 110" fill="none" xmlns="http://www.w3.org/2000/svg">
<circle opacity="0.05" cx="55.1892" cy="55.1892" r="34.1892" fill="url(#paint0_linear_649_1955)"/>
<circle opacity="0.1" cx="55" cy="55" r="43.5" stroke="#4680CA"/>
<circle opacity="0.05" cx="55" cy="55" r="54.5" stroke="#4680CA"/>
<rect x="30" y="30" width="50" height="50" rx="25" fill="#4799F4" fill-opacity="0.1"/>
<path fill-rule="evenodd" clip-rule="evenodd" d="M63.8067 50.6236L63.1842 49.5435C62.6577 48.6295 61.4907 48.3143 60.5755 48.8387V48.8387C60.1399 49.0953 59.6201 49.1681 59.1307 49.041C58.6413 48.914 58.2226 48.5975 57.9668 48.1613C57.8023 47.8841 57.7139 47.5683 57.7105 47.246V47.246C57.7254 46.7292 57.5304 46.2283 57.17 45.8576C56.8096 45.4869 56.3145 45.2778 55.7975 45.278H54.5435C54.037 45.278 53.5513 45.4799 53.194 45.8389C52.8367 46.1979 52.6372 46.6845 52.6396 47.1911V47.1911C52.6246 48.2369 51.7725 49.0768 50.7266 49.0766C50.4042 49.0733 50.0885 48.9849 49.8112 48.8203V48.8203C48.8961 48.296 47.7291 48.6112 47.2025 49.5252L46.5343 50.6236C46.0084 51.5363 46.3194 52.7025 47.23 53.2322V53.2322C47.8219 53.574 48.1865 54.2055 48.1865 54.889C48.1865 55.5725 47.8219 56.204 47.23 56.5457V56.5457C46.3206 57.0719 46.0092 58.2353 46.5343 59.1453V59.1453L47.1659 60.2345C47.4126 60.6797 47.8266 61.0082 48.3162 61.1474C48.8058 61.2865 49.3306 61.2248 49.7746 60.976V60.976C50.2111 60.7213 50.7312 60.6515 51.2193 60.7821C51.7075 60.9128 52.1232 61.233 52.3742 61.6716C52.5387 61.9488 52.6271 62.2646 52.6305 62.5869V62.5869C52.6305 63.6435 53.487 64.5 54.5435 64.5H55.7975C56.8505 64.5 57.7055 63.6491 57.7105 62.5961V62.5961C57.7081 62.088 57.9089 61.6 58.2682 61.2407C58.6275 60.8814 59.1155 60.6806 59.6236 60.6831C59.9452 60.6917 60.2596 60.7797 60.5389 60.9393V60.9393C61.4517 61.4653 62.6179 61.1543 63.1476 60.2437V60.2437L63.8067 59.1453C64.0618 58.7074 64.1318 58.1859 64.0012 57.6963C63.8706 57.2067 63.5502 56.7893 63.111 56.5366V56.5366C62.6718 56.2839 62.3514 55.8665 62.2208 55.3769C62.0902 54.8872 62.1603 54.3658 62.4154 53.9279C62.5812 53.6383 62.8214 53.3981 63.111 53.2322V53.2322C64.0161 52.7028 64.3264 51.5434 63.8067 50.6327V50.6327V50.6236Z" stroke="#4799F4" stroke-width="1.5" stroke-linecap="round" stroke-linejoin="round"/>
<circle cx="55.1751" cy="54.889" r="2.63616" stroke="#4799F4" stroke-width="1.5" stroke-linecap="round" stroke-linejoin="round"/>
<defs>
<linearGradient id="paint0_linear_649_1955" x1="21.2645" y1="21" x2="81.4859" y2="90.226" gradientUnits="userSpaceOnUse">
<stop stop-color="#678CA3"/>
<stop offset="1" stop-color="#6A8EA4"/>
</linearGradient>
</defs>
</svg>

<svg width="110" height="110" fill="none" xmlns="http://www.w3.org/2000/svg"><circle opacity=".05" cx="55.189" cy="55.189" r="34.189" fill="url(#paint0_linear_649_1955)"/><circle opacity=".1" cx="55" cy="55" r="43.5" stroke="#4680CA"/><circle opacity=".05" cx="55" cy="55" r="54.5" stroke="#4680CA"/><rect x="30" y="30" width="50" height="50" rx="25" fill="#4799F4" fill-opacity=".1"/><path clip-rule="evenodd" d="M63.807 50.624l-.623-1.08a1.913 1.913 0 00-2.608-.705v0a1.904 1.904 0 01-2.61-.678 1.832 1.832 0 01-.255-.915v0a1.913 1.913 0 00-1.913-1.968h-1.255a1.904 1.904 0 00-1.903 1.913v0a1.913 1.913 0 01-1.913 1.886 1.83 1.83 0 01-.916-.257v0a1.913 1.913 0 00-2.608.705l-.669 1.099a1.913 1.913 0 00.696 2.608v0a1.913 1.913 0 010 3.314v0a1.904 1.904 0 00-.696 2.6v0l.632 1.088a1.913 1.913 0 002.609.742v0a1.895 1.895 0 012.6.696c.164.277.252.593.255.915v0c0 1.056.857 1.913 1.913 1.913h1.255c1.052 0 1.907-.85 1.913-1.904v0a1.904 1.904 0 011.913-1.913c.321.009.636.097.915.256v0a1.913 1.913 0 002.609-.695v0l.659-1.099a1.904 1.904 0 00-.696-2.608v0a1.904 1.904 0 01-.696-2.61 1.88 1.88 0 01.696-.695v0a1.913 1.913 0 00.696-2.6v0-.008z" stroke="#4799F4" stroke-width="1.5" stroke-linecap="round" stroke-linejoin="round"/><circle cx="55.175" cy="54.889" r="2.636" stroke="#4799F4" stroke-width="1.5" stroke-linecap="round" stroke-linejoin="round"/><defs><linearGradient id="paint0_linear_649_1955" x1="21.265" y1="21" x2="81.486" y2="90.226" gradientUnits="userSpaceOnUse"><stop stop-color="#678CA3"/><stop offset="1" stop-color="#6A8EA4"/></linearGradient></defs></svg>
